img/logo-mythos-dark.svg

<svg width="128" height="36" viewBox="0 0 128 36" fill="none" xmlns="http://www.w3.org/2000/svg">
<path d="M0 8.03604H5.88761L7.0506 9.90991C8.01975 9.18919 8.92833 8.64865 9.77634 8.28829C10.6486 7.9039 11.751 7.71171 13.0836 7.71171C14.2466 7.71171 15.2278 7.95195 16.0274 8.43243C16.8269 8.88889 17.4448 9.52553 17.8809 10.3423C20.2069 8.58859 22.2663 7.71171 24.0592 7.71171C26.4337 7.71171 28.0691 8.32432 28.9656 9.54955C29.8621 10.7748 30.3103 12.6607 30.3103 15.2072V27.4595H23.2597V15.8559C23.2597 15.1592 23.0901 14.6787 22.7509 14.4144C22.4117 14.1261 21.9392 13.982 21.3335 13.982C20.8489 13.982 20.3643 14.0901 19.8798 14.3063C19.3952 14.5225 18.9954 14.7868 18.6804 15.0991V16V27.4595H11.6298V15.8559C11.6298 15.1592 11.4602 14.6787 11.121 14.4144C10.7818 14.1261 10.3094 13.982 9.70366 13.982C9.21908 13.982 8.7345 14.0901 8.24992 14.3063C7.76535 14.5225 7.36557 14.7868 7.0506 15.0991V27.4595H0V8.03604ZM42.01 27.4595C38.2303 27.4595 35.9407 25.5856 35.1411 21.8378L32.1246 8.03604H39.4296L41.6466 20.4324C41.7919 21.3213 42.3129 21.7898 43.2093 21.8378L45.717 8.03604H52.8766L47.8976 32.4324L46.0804 36H40.1201L42.01 27.4595ZM62.8679 27.4595C61.1477 27.4595 59.7908 27.2312 58.7975 26.7748C57.8283 26.3183 57.1257 25.5616 56.6896 24.5045C56.2534 23.4474 56.0717 21.994 56.1444 20.1441L56.3625 13.5856H53.346V9.11712L56.6532 8.03604L57.5255 2.59459H63.1223V8.03604H67.0837V13.5856H63.1223V20.1081C63.1223 20.7327 63.2192 21.2012 63.4131 21.5135C63.6311 21.8018 63.9703 21.97 64.4307 22.018L66.9384 22.2703V27.4595H62.8679ZM69.4213 0H76.4719V9.90991C77.0776 9.33333 77.9014 8.82883 78.9433 8.3964C80.0093 7.93994 81.0512 7.71171 82.0688 7.71171C84.2736 7.71171 85.8242 8.31231 86.7207 9.51351C87.6414 10.7147 88.1018 12.4925 88.1018 14.8468V27.4595H81.0512V15.7838C81.0512 14.5826 80.4091 13.982 79.125 13.982C78.6646 13.982 78.18 14.0901 77.6712 14.3063C77.1867 14.5225 76.7869 14.7868 76.4719 15.0991V27.4595H69.4213V0ZM100.045 27.6396C97.6944 27.6396 95.8409 27.3153 94.484 26.6667C93.1515 25.994 92.1823 24.9489 91.5766 23.5315C90.9951 22.0901 90.7043 20.1441 90.7043 17.6937C90.7043 15.0751 90.9951 13.0571 91.5766 11.6396C92.1823 10.1982 93.1515 9.18919 94.484 8.61261C95.8166 8.01201 97.6701 7.71171 100.045 7.71171C102.419 7.71171 104.273 8.02402 105.605 8.64865C106.938 9.24925 107.895 10.2703 108.477 11.7117C109.082 13.1532 109.385 15.1471 109.385 17.6937C109.385 20.2402 109.094 22.2222 108.513 23.6396C107.956 25.0571 107.011 26.0781 105.678 26.7027C104.346 27.3273 102.468 27.6396 100.045 27.6396ZM100.045 22.0901C100.699 22.0901 101.172 22.006 101.462 21.8378C101.777 21.6456 101.995 21.2492 102.117 20.6486C102.262 20.024 102.335 19.027 102.335 17.6577C102.335 16.3123 102.262 15.3393 102.117 14.7387C101.995 14.1141 101.777 13.7177 101.462 13.5496C101.172 13.3574 100.699 13.2613 100.045 13.2613C99.3908 13.2613 98.9058 13.3574 98.5908 13.5496C98.3001 13.7177 98.082 14.1141 97.9366 14.7387C97.8155 15.3393 97.7549 16.3123 97.7549 17.6577C97.7549 19.027 97.8155 20.024 97.9366 20.6486C98.082 21.2492 98.3001 21.6456 98.5908 21.8378C98.9058 22.006 99.3908 22.0901 100.045 22.0901ZM119.459 27.6757C117.957 27.6757 116.528 27.5916 115.171 27.4234C113.838 27.2312 112.736 26.9429 111.864 26.5586V22.4865H120.949C121.386 22.4865 121.676 22.4384 121.822 22.3423C121.967 22.2222 122.04 22.03 122.04 21.7658V21.2973C122.04 21.033 121.943 20.8408 121.749 20.7207C121.579 20.6006 121.228 20.5405 120.695 20.5405H117.424C115.631 20.5405 114.177 20.0961 113.063 19.2072C111.973 18.3183 111.427 16.9009 111.427 14.955V13.7658C111.427 12.4444 111.67 11.3634 112.154 10.5225C112.663 9.65766 113.535 8.997 114.771 8.54054C116.031 8.08408 117.751 7.85586 119.932 7.85586C121.192 7.85586 122.512 7.97598 123.893 8.21622C125.298 8.43243 126.352 8.68468 127.055 8.97297V13.045H118.442C118.078 13.045 117.812 13.1051 117.642 13.2252C117.473 13.3213 117.388 13.5015 117.388 13.7658V14.2342C117.388 14.5225 117.485 14.7267 117.679 14.8468C117.897 14.9429 118.284 14.991 118.842 14.991H122.221C124.257 14.991 125.722 15.4474 126.619 16.3604C127.54 17.2733 128 18.5946 128 20.3243V22.3063C128 24.2282 127.309 25.6096 125.928 26.4505C124.547 27.2673 122.391 27.6757 119.459 27.6757Z" fill="#383A4A"/>
</svg>

<svg xmlns="http://www.w3.org/2000/svg" width="128" height="36" fill="none" viewBox="0 0 128 36"><path fill="hsl(233, 14%, 25%)" d="M0 8.036h5.888L7.05 9.91q1.453-1.08 2.725-1.622 1.309-.576 3.308-.576 1.744 0 2.943.72a4.7 4.7 0 0 1 1.854 1.91q3.489-2.63 6.178-2.63 3.562 0 4.907 1.838 1.344 1.837 1.344 5.657V27.46h-7.05V15.856q0-1.045-.51-1.442-.507-.432-1.416-.432-.728 0-1.454.324-.728.325-1.2.793V27.46h-7.05V15.856q0-1.045-.509-1.442-.51-.432-1.417-.432-.728 0-1.454.324a4 4 0 0 0-1.2.793v12.36H0zm42.01 19.423q-5.67 0-6.869-5.621L32.125 8.036h7.305l2.217 12.396q.218 1.334 1.562 1.406l2.508-13.802h7.16l-4.98 24.396L46.08 36h-5.96zm20.858 0q-2.58 0-4.07-.684-1.454-.685-2.108-2.27-.655-1.587-.546-4.36l.218-6.56h-3.016V9.118l3.307-1.081.873-5.441h5.596v5.441h3.962v5.55h-3.962v6.522q0 .937.291 1.406.327.432 1.018.504l2.507.252v5.19zM69.42 0h7.05v9.91q.91-.865 2.472-1.514 1.599-.684 3.126-.684 3.307 0 4.652 1.802 1.38 1.801 1.38 5.333v12.612h-7.05V15.784q0-1.802-1.926-1.802-.69 0-1.454.324-.726.325-1.2.793v12.36h-7.05zm30.624 27.64q-3.525 0-5.561-.973-2-1.01-2.907-3.136-.873-2.161-.873-5.837 0-3.928.873-6.054.908-2.162 2.907-3.027 1.999-.901 5.561-.901t5.56.937q2 .9 2.872 3.063.908 2.162.908 5.982 0 3.819-.872 5.946-.835 2.125-2.835 3.063-1.998.936-5.633.937m0-5.55q.981 0 1.417-.252.472-.288.655-1.19.218-.936.218-2.99 0-2.019-.218-2.92-.183-.936-.655-1.188-.436-.29-1.417-.289-.982 0-1.454.289-.436.252-.654 1.189-.182.9-.182 2.919 0 2.054.182 2.99.218.902.654 1.19.473.252 1.454.252m19.414 5.586q-2.253 0-4.288-.253-2-.288-3.307-.864v-4.073h9.085q.655 0 .873-.144.218-.18.218-.576v-.469q0-.396-.291-.576-.255-.18-1.054-.18h-3.271q-2.69 0-4.361-1.334-1.636-1.333-1.636-4.252v-1.19q0-1.981.727-3.242.763-1.298 2.617-1.982 1.89-.685 5.161-.685 1.89 0 3.961.36 2.108.324 3.162.757v4.072h-8.613q-.546 0-.8.18-.254.145-.254.54v.47q0 .432.291.612.327.144 1.163.144h3.379q3.053 0 4.398 1.37Q128 17.73 128 20.323v1.982q0 2.883-2.072 4.145-2.071 1.224-6.469 1.225"/></svg>
